X: 3
T: A Canım Gel Açma
C: Tanburî Mustafa Çavuş
O: Turkey
F: http://compmusic.upf.edu/node/140
N: huzzam--sarki--duyek--a_canim--tanburi_mustafa_cavus
N: makam= huzzam
N: form= sarki
N: usul= duyek = 8/4
M: 8/4
L: 1/16
K: C _1/4B _3/4e ^3/4f 
Q: 1/4=120
%%MIDI tuningsystem comma53
dc de d2 cB c3d BA G2  | fe fg f2 ed f3g f^e f2  | 
w:  ARANAĞME  |   | 
z2 a4 gf c'2 ba gf ed  | z2 c4 BA d2 cB c3B  | \
w:   |   | 
zf ed d3B dc B^A B4  | 
w:   | 
dc de d2 cB c3d BA G2  | fe fg f2 ed f3g f^e f2  | 
w:  ARANAĞME  |   | 
z2 a4 gf c'2 ba gf ed  | z2 c4 BA d2 cB c3B  | \
w:   |   | 
zf ed d3B dc B^A B4  | 
w:   | 
f2 f4 g2 fg fe de fg  | e2 f2 fg fe gf f^e f4  | 
w:  A  câ *  nım   |  gel   | 
z2 ef g2 a2 g2 f2 e2 d2  | z2 d4 cB f2 ed dc B2  | \
w:  aç *  *  ma  sır  |  rı   | 
z2 de de c2 z2 de f2 ed  | 
w:  pin  *  *  *  *  pin  | 
dc de d2 cB A3B c2 d_1/4e  | d2 c4 {c}B2 B3g f^e f2  | \
w:  *  *  *  *  *  *  *  hâ  |  nı    | 
z2 f4 g2 ag fe d^c d2  | 
w:  Bu  sa fâ  | 
z2 c'4 _ba ag gf f^e f2  | z2 ef g2 a2 g2 f2 e2 d2  | \
w:  nın   |  o *  *  lur_ el  | 
z2 d4 cB f2 ed dc B2  | 
w:  bet   | 
z2 de de c2 z2 de f2 ed  | dc de d2 cB A3B c2 d_1/4e  | 
w:  za  *  *  *  *  za  |  ma  *  *  *  *  *  *  ma  | 
d2 c4 {B}B2 B3^A BA B2  | z2 B4 c2 dc B_7/8A G3=F  | \
w:  nı    |  U nu tul  | 
G_7/8A Bc de ed dc2d BA G2  | 
w:  du   | 
z2 Bc B2 c2 d3e dc Bc  | z2 de f2 ed d3c c3B  | 
w:  san *  *  ma  ah   |  ahd_ *  *  *  *  ü   | 
z2 de de c2 z2 de f2 ed  | dc de d2 cB A3B c2 d_1/4e  | 
w:  pey  *  *  *  *  pey  |  mâ  *  *  *  *  *  *  mâ  | 
d2 c4 {c}B2 B3g f^e f2  | z2 f4 g2 ag fe d^c d2  | \
w:  nı   *  *  *  *  SAZ  |  Et me  fer  | 
de fg a_b ba ag gf f^e f2  | 
w:  yâ  | 
z2 ef g2 a2 g2 f2 e2 d2  | z2 d4 cB f2 ed d2 cB  | \
w:  dı  *  *  a  câ  |  nım   | 
z2 de de c2 z2 de f2 ed  | 
w:  ey *  *  *  *  le  | 
dc de d2 cB A3B c2 d_1/4e  | d2 c4 cB f2 ed dc B2  | 
w:  me  *  *  *  *  *  *  zâ  |  rı    | 
z2 Bc B2 c2 d2 e4 ed  | e3d a3g _ba gf fe ed  | 
w:  Sabr_ *  *  o lun  |  *  *  *  *  maz   | 
d2 fe d^c d2 z2 d4 e2  | f2 g2 a2 gf _b2 ag a2 gf  | \
w:  *  *  *  *  *  *  ah  e  |  fen *  *  *  *  dim    | 
g2 fe f2 ed d4 a4  | 
w:  *  *  *  *  *  *  Yan dı   | 
_ba gf ed e2 e2 f4 a2  | gf eg fe df ed ce dc B2  | 
w:  bu  *  *  *  *  *  *  dil   |  *  *  *  *  *  *  *  *  gel   | 
z2 de de c2 z2 de f2 ed  | dc de d2 cB A3B c2 de  | 
w:  öm  *  *  *  *  öm  |  rüm  *  *  *  *  *  *  vâ  | 
d2 c4 cB B6 z2  | |


